icons/tag-17.svg

<svg width="16" height="17" viewBox="0 0 16 17" fill="none" xmlns="http://www.w3.org/2000/svg">
<path fill-rule="evenodd" clip-rule="evenodd" d="M3.21827 7.66888V3.58769C3.21827 3.53384 3.23966 3.4822 3.27773 3.44412C3.31582 3.40604 3.36746 3.38465 3.42131 3.38465H7.5025C7.52918 3.3846 7.55561 3.38981 7.58028 3.39998C7.60495 3.41016 7.62737 3.42509 7.64626 3.44394L12.7224 8.52004C12.7413 8.5389 12.7563 8.56131 12.7665 8.58598C12.7768 8.61065 12.782 8.6371 12.782 8.6638C12.782 8.6905 12.7768 8.71695 12.7665 8.74162C12.7563 8.76629 12.7413 8.7887 12.7224 8.80756L8.64117 12.8887C8.62231 12.9077 8.59991 12.9227 8.57524 12.9329C8.55057 12.9432 8.52412 12.9484 8.49742 12.9484C8.47071 12.9484 8.44427 12.9432 8.41959 12.9329C8.39493 12.9227 8.37252 12.9077 8.35366 12.8887L3.27755 7.81264C3.25871 7.79375 3.24378 7.77133 3.2336 7.74667C3.22343 7.72199 3.21822 7.69556 3.21827 7.66888ZM2 7.66888V3.58769C2 2.80313 2.63675 2.16638 3.42131 2.16638H7.5025C7.87935 2.16638 8.24158 2.31582 8.50798 2.58303L13.5841 7.65914C13.8504 7.92565 14 8.28702 14 8.6638C14 9.04058 13.8504 9.40195 13.5841 9.66846L9.50208 13.7505C9.23557 14.0168 8.8742 14.1664 8.49742 14.1664C8.12064 14.1664 7.75927 14.0168 7.49275 13.7505L2.41665 8.67436C2.28455 8.54235 2.17976 8.3856 2.10826 8.21308C2.03678 8.04056 1.99999 7.85563 2 7.66888ZM6.06089 5.41509C5.84548 5.41509 5.6389 5.50066 5.48659 5.65297C5.33428 5.80529 5.24871 6.01186 5.24871 6.22727C5.24871 6.44267 5.33428 6.64925 5.48659 6.80157C5.6389 6.95387 5.84548 7.03945 6.06089 7.03945C6.27629 7.03945 6.48287 6.95387 6.63518 6.80157C6.78749 6.64925 6.87306 6.44267 6.87306 6.22727C6.87306 6.01186 6.78749 5.80529 6.63518 5.65297C6.48287 5.50066 6.27629 5.41509 6.06089 5.41509Z" fill="#272431"/>
</svg>

<svg xmlns="http://www.w3.org/2000/svg" width="16" height="17" viewBox="0 0 16 17"><path fill-rule="evenodd" d="M3.218 7.669V3.588a.203.203 0 01.203-.203h4.082a.203.203 0 01.143.059l5.076 5.076a.202.202 0 010 .288l-4.08 4.08a.201.201 0 01-.222.045.201.201 0 01-.066-.044L3.278 7.813a.203.203 0 01-.06-.144zM2 7.669V3.588c0-.785.637-1.422 1.421-1.422h4.082c.376 0 .739.15 1.005.417l5.076 5.076a1.421 1.421 0 010 2.01L9.502 13.75a1.421 1.421 0 01-2.01 0L2.418 8.674A1.422 1.422 0 012 7.67zm4.06-2.254a.812.812 0 100 1.624.812.812 0 000-1.624z"/></svg>
